img/location.svg

<svg width="14" height="14" viewBox="0 0 14 14" fill="none" xmlns="http://www.w3.org/2000/svg">
<path fill-rule="evenodd" clip-rule="evenodd" d="M7.00008 1.16667C5.7624 1.16667 4.57542 1.65833 3.70025 2.5335C2.82508 3.40867 2.33341 4.59566 2.33341 5.83333C2.33341 7.64053 3.50926 9.39415 4.79855 10.7551C5.43127 11.4229 6.06597 11.9697 6.54314 12.3497C6.72073 12.4911 6.87584 12.6089 7.00008 12.7007C7.12432 12.6089 7.27943 12.4911 7.45702 12.3497C7.93419 11.9697 8.56889 11.4229 9.20161 10.7551C10.4909 9.39415 11.6667 7.64053 11.6667 5.83333C11.6667 4.59566 11.1751 3.40867 10.2999 2.5335C9.42474 1.65833 8.23776 1.16667 7.00008 1.16667ZM7.00008 13.4167C6.67651 13.902 6.67636 13.9019 6.67619 13.9018L6.67452 13.9007L6.67064 13.8981L6.65727 13.8891C6.64591 13.8813 6.62971 13.8703 6.60899 13.8559C6.56756 13.8272 6.50802 13.7854 6.43296 13.7312C6.2829 13.6228 6.07046 13.4646 5.8164 13.2623C5.30919 12.8584 4.63139 12.275 3.95161 11.5574C2.6159 10.1475 1.16675 8.10947 1.16675 5.83333C1.16675 4.28624 1.78133 2.80251 2.87529 1.70854C3.96925 0.614581 5.45299 0 7.00008 0C8.54718 0 10.0309 0.614581 11.1249 1.70854C12.2188 2.80251 12.8334 4.28624 12.8334 5.83333C12.8334 8.10947 11.3843 10.1475 10.0486 11.5574C9.36877 12.275 8.69097 12.8584 8.18377 13.2623C7.9297 13.4646 7.71726 13.6228 7.5672 13.7312C7.49214 13.7854 7.43261 13.8272 7.39117 13.8559C7.37045 13.8703 7.35425 13.8813 7.3429 13.8891L7.32953 13.8981L7.32564 13.9007L7.32441 13.9015C7.32424 13.9016 7.32366 13.902 7.00008 13.4167ZM7.00008 13.4167L7.32366 13.902C7.12772 14.0327 6.87213 14.0324 6.67619 13.9018L7.00008 13.4167Z" fill="white"/>
<path fill-rule="evenodd" clip-rule="evenodd" d="M7.00008 4.66667C6.35575 4.66667 5.83341 5.189 5.83341 5.83333C5.83341 6.47767 6.35575 7 7.00008 7C7.64441 7 8.16675 6.47767 8.16675 5.83333C8.16675 5.189 7.64441 4.66667 7.00008 4.66667ZM4.66675 5.83333C4.66675 4.54467 5.71142 3.5 7.00008 3.5C8.28875 3.5 9.33342 4.54467 9.33342 5.83333C9.33342 7.122 8.28875 8.16667 7.00008 8.16667C5.71142 8.16667 4.66675 7.122 4.66675 5.83333Z" fill="white"/>
</svg>

<svg width="14" height="14" fill="none" xmlns="http://www.w3.org/2000/svg"><path fill-rule="evenodd" clip-rule="evenodd" d="M7 1.167a4.667 4.667 0 00-4.667 4.666c0 1.808 1.176 3.561 2.466 4.922A17.178 17.178 0 007 12.701a17.178 17.178 0 002.202-1.946c1.289-1.36 2.465-3.114 2.465-4.922A4.667 4.667 0 007 1.167zm0 12.25l-.324.485-.001-.001-.004-.003-.014-.009-.048-.033c-.041-.029-.101-.07-.176-.125a18.327 18.327 0 01-2.481-2.174c-1.336-1.41-2.785-3.448-2.785-5.724a5.833 5.833 0 0111.666 0c0 2.276-1.449 4.315-2.784 5.724a18.333 18.333 0 01-2.658 2.299l-.048.033-.013.01-.004.002h-.002L7 13.418zm0 0l.324.485a.584.584 0 01-.648 0L7 13.417z" fill="#fff"/><path fill-rule="evenodd" clip-rule="evenodd" d="M7 4.667A1.167 1.167 0 107 7a1.167 1.167 0 000-2.333zM4.667 5.833a2.333 2.333 0 114.666 0 2.333 2.333 0 01-4.666 0z" fill="#fff"/></svg>
